X: 45
T: THE WEDDING RING
B: "Old English Country Dances", Frank Kidson ed., William Reeves pub., London 1890
Z: 2010-9-26 John Chambers <jc:trillian.mit.edu>
M: C|
L: 1/8
K: D
|: dfaf gee2 | fddd e/d/c/B/ A4 | dfaf gee2 | fdec d4 :|
|: dcBA GFED | FAdF GEE2 | dcBA GFED | fdec d2d2 :|
|: ffff gggg | ffff ecA2 | ffff gggg | fdec d2d2 :|


%%sep 1 1 500

%%sep 1 1 500

